svg/fluentui-system-icons/ic_fluent_scan_object_20_filled.svg

<svg width="20" height="20" viewBox="0 0 20 20" fill="none" xmlns="http://www.w3.org/2000/svg">
<path d="M3 4.5C3 3.67157 3.67157 3 4.5 3H6.5C6.77614 3 7 2.77614 7 2.5C7 2.22386 6.77614 2 6.5 2H4.5C3.11929 2 2 3.11929 2 4.5V6.5C2 6.77614 2.22386 7 2.5 7C2.77614 7 3 6.77614 3 6.5V4.5ZM17 15.5C17 16.3284 16.3284 17 15.5 17H13.5C13.2239 17 13 17.2239 13 17.5C13 17.7761 13.2239 18 13.5 18H15.5C16.8807 18 18 16.8807 18 15.5V13.5C18 13.2239 17.7761 13 17.5 13C17.2239 13 17 13.2239 17 13.5V15.5ZM15.5 3C16.3284 3 17 3.67157 17 4.5V6.5C17 6.77614 17.2239 7 17.5 7C17.7761 7 18 6.77614 18 6.5V4.5C18 3.11929 16.8807 2 15.5 2H13.5C13.2239 2 13 2.22386 13 2.5C13 2.77614 13.2239 3 13.5 3H15.5ZM3 15.5C3 16.3284 3.67157 17 4.5 17H6.5C6.77614 17 7 17.2239 7 17.5C7 17.7761 6.77614 18 6.5 18H4.5C3.11929 18 2 16.8807 2 15.5V13.5C2 13.2239 2.22386 13 2.5 13C2.77614 13 3 13.2239 3 13.5V15.5ZM11.2333 6.90302C10.6368 6.04144 9.36322 6.04144 8.76674 6.90302L6.17531 10.6462C5.48657 11.641 6.1986 13 7.4086 13H12.5915C13.8015 13 14.5135 11.641 13.8247 10.6462L11.2333 6.90302Z" fill="#212121"/>
</svg>

<svg xmlns="http://www.w3.org/2000/svg" width="20" height="20"><path d="M3 4.5A1.5 1.5 0 0 1 4.5 3h2a.5.5 0 0 0 0-1h-2A2.5 2.5 0 0 0 2 4.5v2a.5.5 0 0 0 1 0v-2Zm14 11a1.5 1.5 0 0 1-1.5 1.5h-2a.5.5 0 0 0 0 1h2a2.5 2.5 0 0 0 2.5-2.5v-2a.5.5 0 0 0-1 0v2ZM15.5 3A1.5 1.5 0 0 1 17 4.5v2a.5.5 0 0 0 1 0v-2A2.5 2.5 0 0 0 15.5 2h-2a.5.5 0 0 0 0 1h2ZM3 15.5A1.5 1.5 0 0 0 4.5 17h2a.5.5 0 0 1 0 1h-2A2.5 2.5 0 0 1 2 15.5v-2a.5.5 0 0 1 1 0v2Zm8.233-8.597a1.5 1.5 0 0 0-2.466 0l-2.592 3.743C5.487 11.641 6.2 13 7.41 13h5.183c1.21 0 1.921-1.359 1.233-2.354l-2.592-3.743Z"/></svg>
